X: 1
T: La Milltownienne
M: 6/8
L: 1/8
R: jig
K: Dmix
FAA FGA | c2 B cAG | FAA FGA | cBA G/2A/2BG |
FAA FGA | c2 B cAG | FAA FAB | cBA G3 :|
Aff Aff | g2 f gcB | Aff Aff | g/2a/2bg f/2g/2af |
Aff Aff | g2 f gcB | Aff Aff | bag fcB |
Aff Aff | g2 f gcB | Aff Aff | g/2a/2bg f/2g/2af |
Aff Aff | g2 f a2 b | c'ba bag | agf cAG |]
